X: 103
%
U:~=!turn!
T: Chuir i gl\`un air \`a bhodach
T: She put her knee on the old man
C:Very old.
O:Scotland
B:Keith Norman MacDonald : "The Skye collection of the best reels & strathspeys extant" : 1887
Z:Ralph Palmer
R:Reel
M:C|
L:1/8
K:A minor
A>B {/^c}d2 (Bd) e2 | A>B {/^c}d2 e>dBG | ABd<d B>d {/^f}e2 | {/^c}dB TB2 A>BAG :|
e>^f {/f}g2 f>g {fg}a2 | e>^f {/f}g2 agfd | (e>^f) {/f}g2 (f>g) a2 | e>d B2 (A>B)A>G |
(e>^f) {/f}g2 (f>g) {/g}a2 | (e>^f) {/f}g2 agfd | e^fge fd {/f}e2 | {/^c}d>B TB2 A>BAG |]


